X: 6
T: The Job Of Journeywork
R: reel
K:

M: 4/4
L: 1/8
K: Dmaj
|: f>e | d>cA>G F>GA>B | (3=cBA B>G A2 f>e | d2 c>A (3 Bcd A>F | G>BA>F D>EF>G |
A>BA>F G>FE>F | D2 D>E F>EF>G | A2 d2 (3Bcd e>f | d2 d>c d2 :|
|: d>e | (3fgf e>f g>fe>f | d>ed>c A2 d>e | f2 e>f g>fe>c | d>cA>^G A2 f>g |
a>gf>a g>fe>f | d>cd>e f2 f>e | d>cA>G F>GA>B | (3=cdc B>c A>ff>e |
d2 c>A (3Bcd A>F | G>BA>F D>EF>G | (3ABA A>F G>EA>F | D2 D>E F>D (3EFG |
A2 d2 (3Bcd e>f | d2 d>c d2 :|
